X:1
T:Title
%%score ( 1 2 ) { 3 | 4 }
L:1/8
Q:1/4=110
M:4/4
K:A
V:1 treble nm="Grand Piano, Soprano"
V:2 treble 
V:3 bass nm="Choir Pad, Tirunelveli, George Stebbins"
V:4 bass 
V:1
 E2 [CA]2 z [CE] [EA]2 | [EB]2 [Ec]6 | [Ec]2 [Fd]2- [Fd][Ec] [EB]2 | [^DA]2 [EB]6 | %4
w: By~George~Coles~Stebbins,~1882 * * *||||
 E2 [CA]2- [CA][CE] [EA]2 | z2 c4 z2 | [FB]2 [EA]2- [EA][EA] [Ec]2 | [DB]2 [CA]6 | %8
w: ||||
 [CA]2 [DF]2- [DF][FA] [Fd]2 | [Fd]2 [Ec]6 | [Ed]2 [Ae]2- [Ae][Ec] [EB]2 | [^DA]2 [EB]6 | %12
w: ||||
 E2 [EA]2- [EA][CE] [EA]2 | z2 c4 z2 | [A^d]2 [Ae]2- [Ae]A [Ac]2 | [GB]2 A6- | A2 z2 z4 |] %17
w: |||||
V:2
 x8 | x8 | x8 | x8 | x8 | [GB]2 A4- [Ad]2 | x8 | x8 | x8 | x8 | x8 | x8 | x8 | [GB]2 A4- [Ad]2 | %14
 x8 | x8 | x8 |] %17
V:3
 E,2 E,2 z A, A,2 | G,2 A,6 | A,2 A,2- A,/ z/ A, B,2 | B,2 G,6 | E,2 E,2- E,A, A,2 | E2 E4 D2 | %6
 D2 C2- CC[K:bass] A,2 | G,2 A,6 | A,2 A,2- A,A, A,2 | A,2 A,6 | B,2 C2- CA, B,2 | B,2 G,6 | %12
 E,2 E,2- E,A, A,2 | E2 E4 D2 | =C2 ^C2- CC E2 | D2 C6- | C2 z2 z4 |] %17
V:4
 z2 A,,2 z A,, C,2 | E,2 z2 z4 | z4 z2 G,2 | F,2 E,6 | z2 A,,2- A,,A,, C,2 | E,2 A,2 =G,2 F,2 | %6
 D,2 E,2- E,E, E,2 | E,2 A,,6 | A,,2 D,2- D,D, D,2 | D,2 A,,6 | A,2 A,4 G,2 | F,2 E,6 | %12
 z2 A,,2- A,,A,, C,2 | E,2 A,2 =G,2 F,2 | ^E,2 =E,2- E,E, E,2 | E,2 A,,6- | A,,2 z2 z4 |] %17

